X:1
T:The Fawn on the Frozen Lake
C:François Champs
R:Reel
M:2/2
K:A
|: EAce eece- | ecea ceaA | E2Ac eede | ecAA BAFA :|
   BAAc BBdB | cBgB aBgB | BAAc BBdB | cBaB gBfB |
   BAAc BBdB | cBfB gBaB | BAAc BBdB | cBgB fBe2 |
